icons/evolvere-blue-folders-flat-vivid-dark-fallback/apps/64/comix.svg

<?xml version="1.0" encoding="UTF-8" standalone="no"?>
<!-- Created with Inkscape (http://www.inkscape.org/) -->

<svg
   xmlns:dc="http://purl.org/dc/elements/1.1/"
   xmlns:cc="http://creativecommons.org/ns#"
   xmlns:rdf="http://www.w3.org/1999/02/22-rdf-syntax-ns#"
   xmlns:svg="http://www.w3.org/2000/svg"
   xmlns="http://www.w3.org/2000/svg"
   xmlns:sodipodi="http://sodipodi.sourceforge.net/DTD/sodipodi-0.dtd"
   xmlns:inkscape="http://www.inkscape.org/namespaces/inkscape"
   width="64"
   height="64"
   id="svg13094"
   version="1.1"
   inkscape:version="0.91+devel r"
   sodipodi:docname="comix.svg">
  <sodipodi:namedview
     id="base"
     pagecolor="#ffffff"
     bordercolor="#666666"
     borderopacity="1.0"
     inkscape:pageopacity="0"
     inkscape:pageshadow="2"
     inkscape:zoom="11.313709"
     inkscape:cx="19.834011"
     inkscape:cy="32.087443"
     inkscape:document-units="px"
     inkscape:current-layer="svg13094"
     showgrid="true"
     inkscape:snap-bbox="true"
     inkscape:bbox-paths="true"
     inkscape:bbox-nodes="true"
     inkscape:snap-bbox-edge-midpoints="true"
     inkscape:snap-bbox-midpoints="true"
     inkscape:object-paths="true"
     inkscape:snap-intersection-paths="true"
     inkscape:object-nodes="true"
     inkscape:snap-smooth-nodes="true"
     inkscape:snap-midpoints="true"
     inkscape:snap-object-midpoints="true"
     inkscape:snap-center="true"
     showguides="false"
     inkscape:guide-bbox="true"
     inkscape:window-width="1920"
     inkscape:window-height="1023"
     inkscape:window-x="-10"
     inkscape:window-y="35"
     inkscape:window-maximized="1"
     inkscape:snap-global="true"
     fit-margin-top="0"
     fit-margin-left="0"
     fit-margin-right="0"
     fit-margin-bottom="0"
     showborder="true"
     inkscape:showpageshadow="false"
     inkscape:snap-page="true">
    <inkscape:grid
       type="xygrid"
       id="grid3075"
       empspacing="5"
       visible="true"
       enabled="true"
       snapvisiblegridlinesonly="true"
       originx="1.6362304e-08px"
       originy="18px" />
    <sodipodi:guide
       orientation="0,1"
       position="-11,30"
       id="guide9148" />
    <sodipodi:guide
       orientation="1,0"
       position="32,70"
       id="guide9150" />
  </sodipodi:namedview>
  <defs
     id="defs13096" />
  <metadata
     id="metadata13099">
    <rdf:RDF>
      <cc:Work
         rdf:about="">
        <dc:format>image/svg+xml</dc:format>
        <dc:type
           rdf:resource="http://purl.org/dc/dcmitype/StillImage" />
        <dc:title></dc:title>
      </cc:Work>
    </rdf:RDF>
  </metadata>
  <path
     id="path6538"
     d="m 0,4 0,30 0,28 2,2 30,0 30,0 2,-2 L 64,34 64,4 32,4 0,4 z"
     style="color:#000000;fill:#80ba1d;fill-opacity:1;fill-rule:nonzero;stroke:none;stroke-width:2.28571415;marker:none;visibility:visible;display:inline;overflow:visible;enable-background:accumulate"
     inkscape:connector-curvature="0" />
  <path
     style="color:#000000;fill:#a2ff02;fill-opacity:1;fill-rule:nonzero;stroke:none;marker:none;visibility:visible;display:inline;overflow:visible;enable-background:accumulate"
     d="M 2 0 L 0 1 L 0 4 L 19.5625 4 L 39.125 4 L 64 4 L 64 1 L 62 0 L 39.125 0 L 19.5625 0 L 2 0 z "
     id="path6688" />
  <path
     d="M 64,6 62,4 64,3 z"
     id="path3028"
     style="fill:#94e012;fill-opacity:1"
     inkscape:connector-curvature="0" />
  <g
     id="g3043"
     inkscape:export-filename="folder.png"
     inkscape:export-xdpi="90"
     inkscape:export-ydpi="90"
     transform="translate(-0.62500009,0.082283)" />
  <g
     id="scalable"
     transform="matrix(1.0385892,0,0,1.0385892,1214.7222,1878.8121)"
     inkscape:label="#g3701"
     style="fill:#ffffff" />
  <path
     style="fill:#bbff47;fill-opacity:1;fill-rule:nonzero"
     d="M 0,3 0,6 2,4 Z"
     id="path4298"
     inkscape:connector-curvature="0"
     sodipodi:nodetypes="cccc" />
  <path
     style="font-size:medium;font-style:normal;font-variant:normal;font-weight:normal;font-stretch:normal;text-indent:0;text-align:start;text-decoration:none;line-height:normal;letter-spacing:normal;word-spacing:normal;text-transform:none;direction:ltr;block-progression:tb;writing-mode:lr-tb;text-anchor:start;baseline-shift:baseline;color:#000000;fill:#d0ff41;fill-opacity:0.27370304;stroke:none;stroke-width:2;marker:none;visibility:visible;display:inline;overflow:visible;enable-background:accumulate;font-family:Sans;-inkscape-font-specification:Sans"
     d="m 8.0000001,42 0,-1 L 56,41 56,42 8.0000001,42 z"
     id="path3841"
     inkscape:connector-curvature="0" />
  <path
     style="color:#000000;fill:#d9d9d9;stroke:none;stroke-width:2;marker:none;visibility:visible;display:inline;overflow:visible;enable-background:accumulate;fill-opacity:1"
     d="M 14.84375 41 L 20 47 L 21 47 L 21 41 L 14.84375 41 z "
     id="path3784" />
  <path
     style="color:#000000;fill:#d9d9d9;stroke:none;stroke-width:2;marker:none;visibility:visible;display:inline;overflow:visible;enable-background:accumulate;fill-opacity:1"
     d="M 43 41 L 43 47 L 44 47 L 49.15625 41 L 43 41 z "
     id="path3782" />
  <path
     inkscape:connector-curvature="0"
     id="path3844"
     d="m 8.0000001,39 0,2 L 56,41 56,39 8.0000001,39 z"
     style="font-size:medium;font-style:normal;font-variant:normal;font-weight:normal;font-stretch:normal;text-indent:0;text-align:start;text-decoration:none;line-height:normal;letter-spacing:normal;word-spacing:normal;text-transform:none;direction:ltr;block-progression:tb;writing-mode:lr-tb;text-anchor:start;baseline-shift:baseline;color:#000000;fill:#1d320e;fill-opacity:0.59838998;stroke:none;stroke-width:2;marker:none;visibility:visible;display:inline;overflow:visible;enable-background:accumulate;font-family:Sans;-inkscape-font-specification:Sans;opacity:1;stroke-linecap:butt;stroke-linejoin:miter;stroke-miterlimit:4;stroke-dasharray:none;stroke-dashoffset:0;stroke-opacity:1" />
  <path
     d="m 20,29.5 a 3.5,3.5 0 1 1 -7,0 3.5,3.5 0 1 1 7,0 z"
     sodipodi:ry="3.5"
     sodipodi:rx="3.5"
     sodipodi:cy="29.5"
     sodipodi:cx="16.5"
     id="path3854"
     style="color:#000000;fill:#1d320e;fill-opacity:1;fill-rule:nonzero;stroke:none;stroke-width:2;marker:none;visibility:visible;display:inline;overflow:visible;enable-background:accumulate"
     sodipodi:type="arc" />
  <path
     id="path3859"
     d="M 19.4375,27.5625 C 19.800497,28.114077 20,28.790326 20,29.5 20,31.432997 18.432997,33 16.5,33 15.790326,33 15.114077,32.800497 14.5625,32.4375 15.188228,33.388298 16.276677,34 17.5,34 19.432997,34 21,32.432997 21,30.5 21,29.276677 20.388298,28.188228 19.4375,27.5625 z"
     style="color:#000000;fill:#d0ff41;fill-opacity:0.27370304;fill-rule:nonzero;stroke:none;stroke-width:2;marker:none;visibility:visible;display:inline;overflow:visible;enable-background:accumulate"
     inkscape:connector-curvature="0" />
  <path
     transform="translate(31,0)"
     sodipodi:type="arc"
     style="color:#000000;fill:#1d320e;fill-opacity:1;fill-rule:nonzero;stroke:none;stroke-width:2;marker:none;visibility:visible;display:inline;overflow:visible;enable-background:accumulate"
     id="path3872"
     sodipodi:cx="16.5"
     sodipodi:cy="29.5"
     sodipodi:rx="3.5"
     sodipodi:ry="3.5"
     d="m 20,29.5 a 3.5,3.5 0 1 1 -7,0 3.5,3.5 0 1 1 7,0 z" />
  <path
     style="color:#000000;fill:#d0ff41;fill-opacity:0.27370304;fill-rule:nonzero;stroke:none;stroke-width:2;marker:none;visibility:visible;display:inline;overflow:visible;enable-background:accumulate"
     d="M 50.4375 27.5625 C 50.800497 28.114077 51 28.790326 51 29.5 C 51 31.432997 49.432997 33 47.5 33 C 46.790326 33 46.114077 32.800497 45.5625 32.4375 C 46.188228 33.388298 47.276677 34 48.5 34 C 50.432997 34 52 32.432997 52 30.5 C 52 29.276677 51.388298 28.188228 50.4375 27.5625 z "
     id="path3788" />
  <path
     transform="matrix(0.28571423,0,0,0.28571423,11.785715,19.57143)"
     d="m 20,29.5 a 3.5,3.5 0 1 1 -7,0 3.5,3.5 0 1 1 7,0 z"
     sodipodi:ry="3.5"
     sodipodi:rx="3.5"
     sodipodi:cy="29.5"
     sodipodi:cx="16.5"
     id="path3792"
     style="color:#000000;fill:#d9d9d9;fill-opacity:1;fill-rule:nonzero;stroke:none;stroke-width:2;marker:none;visibility:visible;display:inline;overflow:visible;enable-background:accumulate"
     sodipodi:type="arc" />
  <path
     sodipodi:type="arc"
     style="color:#000000;fill:#d9d9d9;fill-opacity:1;fill-rule:nonzero;stroke:none;stroke-width:2;marker:none;visibility:visible;display:inline;overflow:visible;enable-background:accumulate"
     id="path3786"
     sodipodi:cx="16.5"
     sodipodi:cy="29.5"
     sodipodi:rx="3.5"
     sodipodi:ry="3.5"
     d="m 20,29.5 a 3.5,3.5 0 1 1 -7,0 3.5,3.5 0 1 1 7,0 z"
     transform="matrix(0.28571423,0,0,0.28571423,42.785715,19.57143)" />
  <path
     sodipodi:nodetypes="cscccc"
     inkscape:connector-curvature="0"
     id="path3818"
     d="M 15.60758,9.553881 C 14.178415,8.4000041 12.62086,8.9974825 10.853427,9.403968 8.8567861,9.8631677 8.9017371,12.530762 9.881851,13.680523 c 6.47862,5.945611 13.381996,9.106569 20.411894,11.438066 1.494788,0.186488 2.109977,-0.198883 1.570145,-1.335173 C 26.713846,20.56716 19.656983,14.715309 15.60758,9.553881 z"
     style="color:#000000;fill:#285d00;fill-opacity:0.22003578;fill-rule:nonzero;stroke:none;stroke-width:2;marker:none;visibility:visible;display:inline;overflow:visible;enable-background:accumulate" />
  <path
     style="color:#000000;fill:#285d00;fill-opacity:0.22003578;fill-rule:nonzero;stroke:none;stroke-width:2;marker:none;visibility:visible;display:inline;overflow:visible;enable-background:accumulate"
     d="M 52.21875 8.90625 C 51.429786 8.9621957 50.602467 9.2030072 49.71875 9.40625 C 47.722109 9.8654497 47.769886 12.537739 48.75 13.6875 C 53.629229 18.165305 58.766325 21.064654 64 23.21875 L 64 18.875 C 60.455844 15.993715 56.905619 12.668568 54.46875 9.5625 C 53.754168 8.9855615 53.007714 8.8503043 52.21875 8.90625 z "
     id="path3794" />
  <path
     style="color:#000000;fill:#284115;fill-opacity:1;fill-rule:nonzero;stroke:none;stroke-width:2;marker:none;visibility:visible;display:inline;overflow:visible;enable-background:accumulate"
     d="m 15.375,9.25 c 0.64786,0.910211 0.941267,3.255569 -0.167709,4.381218 C 13.954497,14.902846 11.192733,14.874217 10.375,14.249999 6.693328,10.123873 6.0775478,5.7272262 6.375,1.25 c 0.3854517,-0.9520063 1.025541,-1.34380972 2,-1 1.353409,3.2799784 3.193164,6.4210008 7,9 z"
     id="path3822"
     inkscape:connector-curvature="0"
     sodipodi:nodetypes="cscccc" />
  <path
     sodipodi:nodetypes="cscccc"
     inkscape:connector-curvature="0"
     id="path3806"
     d="m 48.572969,9.25 c -0.64786,0.910211 -0.941267,3.255569 0.167709,4.381218 1.252794,1.271628 4.014558,1.242999 4.832291,0.618781 3.681672,-4.126126 4.297453,-8.5227728 4,-12.999999 -0.385451,-0.9520063 -1.025541,-1.34380972 -2,-1 -1.353409,3.2799784 -3.193164,6.4210008 -7,9 z"
     style="color:#000000;fill:#284115;fill-opacity:1;fill-rule:nonzero;stroke:none;stroke-width:2;marker:none;visibility:visible;display:inline;overflow:visible;enable-background:accumulate" />
</svg>

<svg xmlns="http://www.w3.org/2000/svg" viewBox="0 0 64 64" xmlns:xlink="http://www.w3.org/1999/xlink"><defs><path id="0" d="m20 29.5a3.5 3.5 0 1 1 -7 0 3.5 3.5 0 1 1 7 0" color="#000"/></defs><g color="#000"><path d="m0 4v30 28l2 2h30 30l2-2v-28-30h-32-32" fill="#80ba1d"/><path d="m2 0l-2 1v3h19.563 19.563 24.875v-3l-2-1h-22.875-19.563-17.563" fill="#a2ff02"/></g><path d="m64 6l-2-2 2-1z" fill="#94e012"/><path d="m0 3v3l2-2" fill="#bbff47"/><g color="#000"><path d="m8 42v-1h48v1h-48" fill-opacity=".274" fill="#d0ff41"/><g fill="#d9d9d9"><path d="m14.844 41l5.156 6h1v-6h-6.156"/><path d="m43 41v6h1l5.156-6h-6.156"/></g><path d="m8 39v2h48v-2h-48" fill-opacity=".598" fill="#1d320e"/></g><use fill="#1d320e" xlink:href="#0"/><path d="m19.438 27.563c.363.552.563 1.228.563 1.938 0 1.933-1.567 3.5-3.5 3.5-.71 0-1.386-.2-1.938-.563.626.951 1.714 1.563 2.938 1.563 1.933 0 3.5-1.567 3.5-3.5 0-1.223-.612-2.312-1.563-2.938" fill="#d0ff41" fill-opacity=".274" color="#000"/><use transform="translate(31)" fill="#1d320e" xlink:href="#0"/><path d="m50.44 27.563c.363.552.563 1.228.563 1.938 0 1.933-1.567 3.5-3.5 3.5-.71 0-1.386-.2-1.938-.563.626.951 1.714 1.563 2.938 1.563 1.933 0 3.5-1.567 3.5-3.5 0-1.223-.612-2.312-1.563-2.938" fill="#d0ff41" fill-opacity=".274" color="#000"/><g fill="#d9d9d9"><use transform="matrix(.28571 0 0 .28571 11.786 19.571)" xlink:href="#0"/><use transform="matrix(.28571 0 0 .28571 42.786 19.571)" xlink:href="#0"/></g><g color="#000"><g fill="#285d00" fill-opacity=".22"><path d="m15.608 9.554c-1.429-1.154-2.987-.556-4.754-.15-1.997.459-1.952 3.127-.972 4.277 6.479 5.946 13.382 9.107 20.412 11.438 1.495.186 2.11-.199 1.57-1.335-5.15-3.216-12.207-9.07-16.256-14.23"/><path d="m52.22 8.906c-.789.056-1.616.297-2.5.5-1.997.459-1.949 3.131-.969 4.281 4.879 4.478 10.02 7.377 15.25 9.531v-4.344c-3.544-2.881-7.094-6.206-9.531-9.313-.715-.577-1.461-.712-2.25-.656"/></g><g fill="#284115"><path d="m15.375 9.25c.648.91.941 3.256-.168 4.381-1.253 1.272-4.01 1.243-4.832.619-3.682-4.126-4.297-8.523-4-13 .385-.952 1.026-1.344 2-1 1.353 3.28 3.193 6.421 7 9"/><path d="m48.573 9.25c-.648.91-.941 3.256.168 4.381 1.253 1.272 4.01 1.243 4.832.619 3.682-4.126 4.297-8.523 4-13-.385-.952-1.026-1.344-2-1-1.353 3.28-3.193 6.421-7 9"/></g></g></svg>
